X:231
T: Dillon Browns Fancy
T:Laington's
R:reel
L:1/8
Q:240
M:4/4
K:A
 cB |: AF EF A3e | fe ce fa af | ec c2 ac c2 | fc ec Bd cB |
 AF EF A3e | fe ce f2 af |  ec c2 ac ec |1 Bd cB A2 cB :|2 Bd cB A2 ed |
 |: ce Ae ce Ac | BE E2 Bc dB | cA AG Ac ec | 
 BE E2 Bc dB | Ac cB ce dc | B3A Bc dB | AB ce fa af | ec cB cd cB :|
